X:4397
T:Mountain Pathway, The
O:england
R:polka
D:Joe McHugh & Barry Carroll: The Long Finger
D:Mary Bergin: Feadoga Stain 2
D:Paul McGrattan: The Frost is All Over
M:2/4
L:1/8
K:G
B2 B/A/G/B/|dc cd|ed df|a/g/f/a/ gf|
e2 g>f|ed/^c/ d2|d/f/a/f/ d/f/a/f/|1 d/f/a/f/ gd:|2 d/f/a/f/ gf||
|:gd g>a|bg gg/f/|ec ef/g/|a/g/f/a/ gg/e/|
d/e/d/B/ GB/c/|d/e/d/B/ GA/B/|cA A/F/D/F/|1 AG G2:|2 AG GA||
"Version 2:"
B2 B>c|dc cB|cd ef|a/g/f/a/ g2|
e2 e/f/g/f/|e/d/^c/e/ d>c|d/f/a/f/ d/f/a/f/|1 gb gd:|2 gb gf||
|:g2 gd/g/|bg gf|ee ec|e/g/e/d/ B>c|
d/e/d/B/ GB/c/|d/e/d/B/ GB|cA DF|1 AG G2:|2 AG GA||


